Adwaita++/status/22/changes-allow.svg

<svg height="22" width="22" xmlns="http://www.w3.org/2000/svg">
  <path d="m11 1.5c-2.982464 0-5.4359589 2.1562262-5.9101562 5h2.0488281c.4436922-1.7262966 1.9927781-3 3.8613281-3 2.216 0 4 1.784 4 4v2h2v-2c0-3.324-2.676-6-6-6z" opacity=".2"/>
  <path d="m11 1c-2.982464 0-5.4359589 2.1562262-5.9101562 5h2.0488281c.4436922-1.7262966 1.9927781-3 3.8613281-3 2.216 0 4 1.784 4 4v2h2v-2c0-3.324-2.676-6-6-6z" fill="#d2d2d2"/>
  <rect fill="#fe3c38" height="16" rx="1" transform="matrix(0 -1 -1 0 0 0)" width="12" x="-21" y="-19"/>
  <path d="m11 1c-2.982464 0-5.4359589 2.1562262-5.9101562 5h.1054687c.6638104-2.5919901 3.0000625-4.5 5.8046875-4.5 3.324 0 6 2.676 6 6v-.5c0-3.324-2.676-6-6-6z" fill="#fff" opacity=".2"/>
  <path d="m4 9c-.554 0-1 .446-1 1v.5c0-.554.446-1 1-1h14c.554 0 1 .446 1 1v-.5c0-.554-.446-1-1-1z" fill="#fff" opacity=".2"/>
  <path d="m3 11h16v7h-16z" fill="#fe6a6a"/>
  <path d="m3 20v.5c0 .554.446 1 1 1h14c.554 0 1-.446 1-1v-.5c0 .554-.446 1-1 1h-14c-.554 0-1-.446-1-1z" opacity=".2"/>
</svg>

<svg xmlns="http://www.w3.org/2000/svg" width="22" height="22" version="1">
 <path d="m 11,1.5 c -2.982464,0 -5.4359589,2.1562262 -5.9101562,5 H 7.1386719 C 7.5823641,4.7737034 9.13145,3.5 11,3.5 c 2.216,0 4,1.784 4,4 v 2 h 2 v -2 c 0,-3.324 -2.676,-6 -6,-6 z" style="opacity:0.2"/>
 <path style="fill:#d2d2d2" d="M 11,1 C 8.017536,1 5.5640411,3.1562262 5.0898438,6 H 7.1386719 C 7.5823641,4.2737034 9.13145,3 11,3 c 2.216,0 4,1.784 4,4 v 2 h 2 V 7 C 17,3.676 14.324,1 11,1 Z"/>
 <rect style="fill:#fe3c38" width="12" height="16" x="-21" y="-19" rx="1" ry="1" transform="matrix(0,-1,-1,0,0,0)"/>
 <path style="opacity:0.2;fill:#ffffff" d="M 11,1 C 8.017536,1 5.5640411,3.1562262 5.0898438,6 H 5.1953125 C 5.8591229,3.4080099 8.195375,1.5 11,1.5 c 3.324,0 6,2.676 6,6 V 7 C 17,3.676 14.324,1 11,1 Z"/>
 <path style="opacity:0.2;fill:#ffffff" d="M 4,9 C 3.446,9 3,9.446 3,10 v 0.5 c 0,-0.554 0.446,-1 1,-1 h 14 c 0.554,0 1,0.446 1,1 V 10 C 19,9.446 18.554,9 18,9 Z"/>
 <rect style="fill:#fe6a6a" width="16" height="7" x="3" y="11" rx="0" ry="0"/>
 <path style="opacity:0.2" d="m 3,20 v 0.5 c 0,0.554 0.446,1 1,1 h 14 c 0.554,0 1,-0.446 1,-1 V 20 c 0,0.554 -0.446,1 -1,1 H 4 C 3.446,21 3,20.554 3,20 Z"/>
</svg>
